X:63
T:One Good Tern
R:reel
C:Paul S. Cranford
O:Cape Breton Island
S:http://www.cranfordpub.com
D:currently unrecorded
B:currently unpublished in book form
Z:psc, (re-formatted,updated 9/17/04)
N:
H:                                                        copyrights Cranford Publications, SOCAN
L:1/8
Q:333
M:C|
K:Eb
F|:EGBe cBGE|FEGE FECE|B,EA,E G,B,Ee|cBGE F/F/F GF|
EGBe cBGE|FEGE FECE|[1B,EA,E G,B,EG|FECD E/E/E ED:|[2B,EGe cBeg|fegf e/e/e e||
|:B|bBgb fece|BEGE FECE|B,EA,E G,B,Ee|[1cBGE F/F/F EB|
bBgb fece|BEGE FECE|B,EGe cBeg|fegf e/e/e e:|
[2cBGE F/F/F GF|EGBe ceBe|GeBG FECA,|B,EA,E G,B,EG|FECD E/E/E E|]
